X:1
T:Title
%%score { ( 1 3 ) | ( 2 4 ) }
L:1/8
M:4/4
K:Db
V:1 treble nm="Grand Piano"
V:3 treble 
V:2 bass 
V:4 bass 
V:1
 z4 z2[Q:1/4=100] F2 | E2 D2 G2 F2 | A3[K:bass] [G,CE] [G,CE]2 [G,CF]2 | %3
 [F,D]2[K:treble] [B,DF]2 c2 B2 |[M:3/4] A6 |[M:1/4] A2 |[M:4/4] B2 [Ac]2 [Ae]2 [Ad]2 | %7
 [Fd]3 [Ec] [=DB]2 [DF]2 | B2 EF G2 [A,F]E |[M:3/4][K:bass] [D,F,A,D]6 |[M:1/4][K:treble] A2 | %11
[M:4/4] B2 d2 c2 B2 | [FB]3 [FA] [FA]2 F2 | A2 E2 F2 G2 |[M:3/4] F6 |[M:1/4] A2 | %16
[M:4/4] B2 c2 e2 d2 | d3 A A2 F2 | B2 EF G2 [A,F]E |[M:3/4][K:bass] [D,F,D]4 z2 |] %20
V:2
 z4 z2 [D,A,D]2 | [D,G,D]2 [D,F,]2 [D,B,D]2 [D,A,D]2 | [E,G,C]3 A,, A,,2 A,,2 | %3
 B,,2 B,,2 [E,A,E]2 [E,DE]2 |[M:3/4] [A,CE]6 |[M:1/4] [A,CE]2 | %6
[M:4/4] [G,CE]2 [G,E]2 [F,D]2 [F,D]2 | [F,=A,]3 [F,A,] [B,,_A,]2 [B,,A,]2 | %8
 [E,G,E]2 B,-[F,B,=D] [E,B,E]2 z G, |[M:3/4] D,,6 |[M:1/4] [D,F,D]2 | %11
[M:4/4] [D,G,D]2 [D,B,D]2 [D,A,D]2 [D,G,D]2 | [D,A,]3 [D,D] [D,D]2 [=D,A,_C]2 | %13
 [E,A,C]2 [G,A,C]2 [F,A,C]2 [E,A,C]2 |[M:3/4] [D,A,D]6 |[M:1/4] [F,A,D]2 | %16
[M:4/4] [G,D]2 [G,A,D]2[K:treble] [=G,B,E]2 [G,B,_F]2 | [A,DF]3 [A,DF] [A,DF]2[K:bass] [B,D]2 | %18
 [G,B,E]2 B,-[F,B,=D] [E,B,E]2 z G, |[M:3/4] D,,4 z2 |] %20
V:3
 x8 | x8 | x3[K:bass] x5 | x2[K:treble] x6 |[M:3/4] x6 |[M:1/4] x2 |[M:4/4] x8 | x8 | z4 z2 C2 | %9
[M:3/4][K:bass] x6 |[M:1/4][K:treble] x2 |[M:4/4] x8 | x8 | x8 |[M:3/4] x6 |[M:1/4] x2 | %16
[M:4/4] x8 | x8 | z4 z2 C2 |[M:3/4][K:bass] x6 |] %20
V:4
 x8 | x8 | x8 | x8 |[M:3/4] x6 |[M:1/4] x2 |[M:4/4] x8 | x8 | z2 .G,2 z2 A,,2 |[M:3/4] x6 | %10
[M:1/4] x2 |[M:4/4] x8 | x8 | x8 |[M:3/4] x6 |[M:1/4] x2 |[M:4/4] x4[K:treble] x4 | x6[K:bass] x2 | %18
 z2 .G,2 z2 A,,2 |[M:3/4] x6 |] %20

